images/icon-sd-card.svg

<svg height="95" viewBox="0 0 72 95" width="72" xmlns="https://www.w3.org/2000/svg"><path d="m0 15.105v74.901c0 2.759 2.215 4.994 4.948 4.994h62.104c2.733 0 4.948-2.235 4.948-4.993v-85.013c0-2.758-2.215-4.994-4.948-4.994h-50.351z" fill="#f07324"/><g fill="#f8b589"><path d="m10.639 84.264c0 2.759 2.215 4.994 4.948 4.994h40.825c2.733 0 4.948-2.235 4.948-4.994v-27.588c0-2.759-2.215-4.994-4.948-4.994h-40.825c-2.733 0-4.948 2.235-4.948 4.994z"/><path d="m49.442 15.916c0 1.414 1.136 2.56 2.536 2.56 1.4 0 2.536-1.146 2.536-2.56v-8.863c0-1.412-1.136-2.559-2.536-2.559-1.4 0-2.536 1.146-2.536 2.559z"/><path d="m59.947 15.916c0 1.414 1.135 2.56 2.536 2.56 1.4 0 2.535-1.146 2.535-2.56v-8.863c0-1.412-1.135-2.559-2.535-2.559-1.401 0-2.536 1.146-2.536 2.559z"/><path d="m38.938 15.916c0 1.414 1.136 2.56 2.536 2.56 1.4 0 2.536-1.146 2.536-2.56v-8.863c0-1.412-1.136-2.559-2.536-2.559-1.4 0-2.536 1.146-2.536 2.559z"/><path d="m28.432 15.916c0 1.414 1.136 2.56 2.536 2.56 1.4 0 2.536-1.146 2.536-2.56v-8.863c0-1.412-1.136-2.559-2.536-2.559-1.4 0-2.536 1.146-2.536 2.559z"/><path d="m17.928 15.916c0 1.414 1.135 2.56 2.536 2.56 1.401 0 2.536-1.146 2.536-2.56v-8.863c0-1.412-1.135-2.559-2.536-2.559-1.4 0-2.536 1.146-2.536 2.559z"/><path d="m7.423 22.658c0 1.412 1.135 2.559 2.536 2.559 1.4 0 2.536-1.146 2.536-2.559v-8.863c0-1.414-1.135-2.56-2.536-2.56-1.401 0-2.536 1.146-2.536 2.56z"/></g></svg>

<?xml version="1.0" encoding="utf-8"?>
<!-- Generator: Adobe Illustrator 13.0.0, SVG Export Plug-In  -->
<!DOCTYPE svg [
	<!ENTITY ns_flows "http://ns.adobe.com/Flows/1.0/">
]>
<svg version="1.2" baseProfile="tiny"
	 xmlns="http://www.w3.org/2000/svg" xmlns:xlink="http://www.w3.org/1999/xlink" xmlns:a="http://ns.adobe.com/AdobeSVGViewerExtensions/3.0/"
	 x="0px" y="0px" width="72px" height="95px" viewBox="0 0 72 95" xml:space="preserve">
<defs>
</defs>
<path fill="#F07324" d="M0,15.105v74.901C0,92.765,2.215,95,4.948,95h62.104C69.785,95,72,92.765,72,90.007V4.994
	C72,2.236,69.785,0,67.052,0H16.701L0,15.105z"/>
<path fill="#F8B589" d="M10.639,84.264c0,2.759,2.215,4.994,4.948,4.994h40.825c2.733,0,4.948-2.235,4.948-4.994V56.676
	c0-2.759-2.215-4.994-4.948-4.994H15.587c-2.733,0-4.948,2.235-4.948,4.994V84.264z"/>
<path fill="#F8B589" d="M49.442,15.916c0,1.414,1.136,2.56,2.536,2.56l0,0c1.4,0,2.536-1.146,2.536-2.56V7.053
	c0-1.412-1.136-2.559-2.536-2.559l0,0c-1.4,0-2.536,1.146-2.536,2.559V15.916z"/>
<path fill="#F8B589" d="M59.947,15.916c0,1.414,1.135,2.56,2.536,2.56l0,0c1.4,0,2.535-1.146,2.535-2.56V7.053
	c0-1.412-1.135-2.559-2.535-2.559l0,0c-1.401,0-2.536,1.146-2.536,2.559V15.916z"/>
<path fill="#F8B589" d="M38.938,15.916c0,1.414,1.136,2.56,2.536,2.56l0,0c1.4,0,2.536-1.146,2.536-2.56V7.053
	c0-1.412-1.136-2.559-2.536-2.559l0,0c-1.4,0-2.536,1.146-2.536,2.559V15.916z"/>
<path fill="#F8B589" d="M28.432,15.916c0,1.414,1.136,2.56,2.536,2.56l0,0c1.4,0,2.536-1.146,2.536-2.56V7.053
	c0-1.412-1.136-2.559-2.536-2.559l0,0c-1.4,0-2.536,1.146-2.536,2.559V15.916z"/>
<path fill="#F8B589" d="M17.928,15.916c0,1.414,1.135,2.56,2.536,2.56l0,0c1.401,0,2.536-1.146,2.536-2.56V7.053
	c0-1.412-1.135-2.559-2.536-2.559l0,0c-1.4,0-2.536,1.146-2.536,2.559V15.916z"/>
<path fill="#F8B589" d="M7.423,22.658c0,1.412,1.135,2.559,2.536,2.559l0,0c1.4,0,2.536-1.146,2.536-2.559v-8.863
	c0-1.414-1.135-2.56-2.536-2.56l0,0c-1.401,0-2.536,1.146-2.536,2.56V22.658z"/>
</svg>
